!!!!SEGMENT: pl-kc--40102-iii-1-saf--001-027_zielenski-mikolaj--offertoria-totius-anni-in-festo-ss-ioannis-et-pauli-martyrum-gloriabuntur-in-te-omnes.krn
!!!cenid: 16xx:1505
!!!COM: Zieleński, Mikołaj
!!!COM-rismID: pe30013481
!!!CDT: <1611->1611
!!!CNT: Polish
!!!GTL: Offertoria totius anni
!!!OTL: In festo SS. Ioannis et Pauli Martyrum/Gloriabuntur in te omnes
!!!OMV: 027
!!!PDT: 1611
!!!AGN:
!!!SMS-siglum: PL-Kc
!!!SMS-shelfmark: 40102 III/1 Saf.
!!!SMS-shelfwork: 001-027 G
!!!SMS-variant:
!!!SMS-altvar:
!!!NIFC-rismSourceID: 990069886
!!!NIFC-rismChildID: 990069886
!!!NIFC-islandoraID: none
!!!URL-pdf-islandora:
!!!URL-scan: https://cyfrowe.mnk.pl/dlibra/publication/24235/edition/23926/content?ref=desc @EN{Scan on The National Museum in Krakow Website} @PL{Skany w portalu Biblioteka Cyfrowa Muzeum Narodowego w Krakowie}
!!!ONB-nifc: UWAGA: str. 25-26. Uwaga: W xml metrum 2/1 do źródłowego C| i odpowiednio 3/1 do 3/2
!!!AIN: 4 organ
!!!key: F:lyd
**kern	**kern	**kern	**kern
*group1	*group1	*group1	*group1
*part4	*part3	*part2	*part1
*staff4	*staff3	*staff2	*staff1
*I""Organo	*	*	*
*Iorgan	*Iorgan	*Iorgan	*Iorgan
*ICklav	*ICklav	*ICklav	*ICklav
*clefF4	*clefC1	*clefF4	*clefC1
*k[b-]	*k[b-]	*k[b-]	*k[b-]
*F:lyd	*F:lyd	*F:lyd	*F:lyd
*M2/1	*M2/1	*M2/1	*M2/1
*met(C|)	*met(C|)	*met(C|)	*met(C|)
=1	=1	=1	=1
!LO:TX:t=P:problem=all/middle&colon; global	!LO:TX:t=P:problem=all/middle&colon; global	!LO:TX:t=P:problem=all/middle&colon; global	!LO:TX:t=P:problem=all/middle&colon; global
!LO:TX:t=P:problem=all\middle&colon; global	!LO:TX:t=P:problem=all\middle&colon; global	!LO:TX:t=P:problem=all\middle&colon; global	!LO:TX:t=P:problem=all\middle&colon; global
!	!	!	!LO:TX:b:t=Gloriabuntur in te omnes.
!	!	!	!LO:TX:a:t=In feſto SS.Ioannis, & Pauli Martyrum. A S.
00r	00r	2.F\	2.cc\
.	.	4F\	4cc\
.	.	2F\	2cc\
.	.	2F\	2a\
=2-	=2-	=2-	=2-
.	.	2BB-/	2b-\
.	.	1B-	1dd
.	.	2A\	2cc\
=3	=3	=3	=3
00r	00r	1G	1b-
.	.	4F\	4a\
.	.	2F\	2cc\
.	.	4E\	4g/
=4-	=4-	=4-	=4-
.	.	4F\	4a\
.	.	4F\	4a\
.	.	2D/	2b-\
.	.	2C/	2cc\
.	.	2BBn/	2dd\
=5	=5	=5	=5
00r	00r	4C/	4g/
.	.	2C/	2ee-X\
.	.	4G\	2dd\
.	.	2.E-X\	.
.	.	.	4cc\
.	.	.	2.cc\
.	.	8D/	.
.	.	8C/	.
=6-	=6-	=6-	=6-
.	.	2G\	.
.	.	.	8bn\
.	.	.	8a\
.	.	2GG/	2b\
.	.	4C/	4cc\
.	.	2C/	2g/
.	.	4C/	4e/
=7	=7	=7	=7
0r	0r	2BB-/	4f/
.	.	.	4f/
.	.	2GG/	2.g/
.	.	2AA/	.
.	.	.	4f/
.	.	2FF/	2.f/
=8-	=8-	=8-	=8-
2.C/	2.cc\	1C	.
.	.	.	8e/
.	.	.	8d/
.	.	.	2e/
4C/	4cc\	.	.
2F\	2cc\	1FF	1f
2F\	2a\	.	.
=9	=9	=9	=9
2BB-/	2b-\	00r	00r
1B-	1dd	.	.
2A\	2cc\	.	.
=10-	=10-	=10-	=10-
1G	1b-	.	.
4F\	4a\	.	.
2F\	2cc\	.	.
4E\	4g/	.	.
=11	=11	=11	=11
4F\	4a\	00r	00r
4F\	4a\	.	.
2D/	2b-\	.	.
2E-X\	2b-\	.	.
2C/	2cc\	.	.
=12-	=12-	=12-	=12-
4BB-/	4f/	.	.
2BB-/	2b-\	.	.
4GG/	4b-\	.	.
2C/	4g/	.	.
.	4g/	.	.
2GG/	4a\	.	.
.	4g/	.	.
=13	=13	=13	=13
2D/	4f/	00r	00r
.	4d/	.	.
2GG/	2.g/	.	.
1D	.	.	.
.	8f#X/	.	.
.	8e/	.	.
.	2f#/	.	.
=14-	=14-	=14-	=14-
2GG/	1g	.	.
2.C/	.	.	.
.	2r	.	.
4BB-/	.	.	.
4AA/	2cc\	.	.
4GG/	.	.	.
=15	=15	=15	=15
2FF/	2b-\	0r	0r
2FF/	2a\	.	.
0GG	0g	.	.
=16-	=16-	=16-	=16-
.	.	1r	1r
1C	1g	2r	2r
.	.	2.C/	2.g/
=17	=17	=17	=17
00r	00r	.	.
.	.	4C/	4g/
.	.	1F	1a
.	.	2D/	2b-\
=18-	=18-	=18-	=18-
.	.	2.C/	2.cc\
.	.	4C/	4cc\
.	.	2BB-/	2dd\
.	.	4B-\	4dd\
.	.	4B-\	4dd\
=19	=19	=19	=19
00r	00r	4E\	4ee-X\
.	.	4BB-/	4dd\
.	.	2F\	2cc\
.	.	4BB-/	4b-\
.	.	2BB-/	2dd\
.	.	4GG/	4dd\
=20-	=20-	=20-	=20-
.	.	2C/	2cc\
.	.	2AA/	2cc\
.	.	4GG/	1b-
.	.	4AA/	.
.	.	4BB-/	.
.	.	4GG/	.
=21	=21	=21	=21
2r	2r	1D	1a
2.D/	2.f#X/	.	.
.	.	1r	1r
4D/	4f#/	.	.
1G\	1g\	.	.
=22-	=22-	=22-	=22-
.	.	0r	0r
2E\	2g/	.	.
2.D/	2.f#/	.	.
4D/	4f#/	.	.
=23	=23	=23	=23
2C/	2e/	0r	0r
4C/	4g/	.	.
4C/	4g/	.	.
4AA/	4a\	.	.
4FF/	4a\	.	.
2C/	2g/	.	.
=24-	=24-	=24-	=24-
1FF	1f	2r	2r
.	.	4F\	4cc\
.	.	4F\	4cc\
1r	1r	4D/	4ff\
.	.	4C/	4ee\
.	.	2G\	2dd\
=25	=25	=25	=25
2r	2r	2C/	2cc\
4C/	4g/	4C/	4cc\
4C/	4g/	4C/	4g/
2AA/	2cc\	2C/	2a\
2FF/	2a\	2F\	2cc\
*custos:C	*custos:g	*custos:G	*custos:cc
!LO:LB:g=original	!LO:LB:g=original	!LO:LB:g=original	!LO:LB:g=original
=26-	=26-	=26-	=26-
1C	1g	1G	1cc
1FF	1a	2F\	2cc\
.	.	[<2F\	[<2cc\
=27	=27	=27	=27
1r	1r	2F]	2cc]
.	.	2D/	2dd\
2r	2r	1C	1g
1C/	1g\	.	.
=28-	=28-	=28-	=28-
.	.	1r	1r
2AA/	2a\	.	.
1GG	1d	2r	2r
.	.	4r	2dd\
.	.	4G\	.
=29	=29	=29	=29
0r	0r	4.B-\	4.dd\
.	.	8B-\	8dd\
.	.	4F\	4cc\
.	.	4D/	4dd\
.	.	4.E-X\	4.b-\
.	.	8E-\	8b-\
.	.	4E-\	4b-\
.	.	4C/	4cc\
=30-	=30-	=30-	=30-
2r	2r	1D	4b-\
.	.	.	8a\
.	.	.	8g\
4r	4r	.	2a\
4D/	4dd\	.	.
4.G\	4.dd\	2GG/	2g/
8G\	8dd\	.	.
4B-\	4dd\	2r	2r
4BB-/	4dd\	.	.
=31	=31	=31	=31
4.E-X\	4.b-\	1r	1r
8E-\	8b-\	.	.
4E-\	4b-\	.	.
4C/	4cc\	.	.
1D	4b-\	2r	2r
.	8a\	.	.
.	8g\	.	.
.	2a\	4r	4r
.	.	4D/	4dd\
=32-	=32-	=32-	=32-
2GG/	2g/	4.G\	4.dd\
.	.	8G\	8dd\
1r	1r	4B-\	4dd\
.	.	4BB-/	4dd\
.	.	4.E\	4.b-\
.	.	8E\	8b-\
2r	2r	4E\	4b-\
.	.	4C/	4ee\
=33	=33	=33	=33
1r	1r	4.D/	2dd\
.	.	8E\	.
.	.	2F\	2cc\
2r	2r	1BB-	1b-
1BB-/	1dd\	.	.
=34-	=34-	=34-	=34-
.	.	0r	0r
2BB-/	2b-\	.	.
1FF	1cc	.	.
=35	=35	=35	=35
2r	2r	2r	2r
1FF	1cc	1F	1ff
2FF/	2cc\	2F\	2ff\
=36-	=36-	=36-	=36-
2.C/	2.cc\	1C	1ee
4C/	4g/	.	.
4.AA/	4.cc\	1r	1r
8AA/	8cc\	.	.
4AA/	4cc\	.	.
4BB-/	4b-\	.	.
=37	=37	=37	=37
4.FF/	4.a\	1r	1r
8FF/	8a\	.	.
4FF/	4a\	.	.
4GG/	2g/	.	.
4.AA/	.	2r	2r
.	2f/	.	.
8BB-/	.	.	.
2C/	.	4r	4r
.	4e/	4C/	4g/
=38-	=38-	=38-	=38-
2FF/	1f	4.AA/	4.cc\
.	.	8AA/	8cc\
1r	.	4AA/	4cc\
.	.	4BB-/	4b-\
.	1r	4.FF/	4.a\
.	.	8FF/	8a\
2r	.	4FF/	4a\
.	.	4GG/	[<4g/
=39	=39	=39	=39
2r	2r	4.AA/	4g/]
.	.	.	2f/
.	.	8BB-/	.
4r	4r	2C/	.
4C/	4g/	.	4e/
4.AA/	4.cc\	2FF/	1f
8AA/	8cc\	.	.
4AA/	4cc\	2r	.
4BB-/	4b-\	.	.
=40-	=40-	=40-	=40-
4.FF/	4.a\	0r	0r
8FF/	8a\	.	.
4F\	4a\	.	.
4D/	2dd\	.	.
2G\	.	.	.
.	2cc\	.	.
2GG/	.	.	.
!	!LO:N:acc=#	!	!
.	4bn\	.	.
=41	=41	=41	=41
2.C/	2cc\	2r	2r
.	2cc\	2C/	2ee\
4C/	.	.	.
4.FF/	4.cc\	4.F\	4.ff\
8FF/	8cc\	8F\	8ff\
4FF/	4cc\	4F\	4ff\
4AA/	4cc\	4C/	4ee\
=42-	=42-	=42-	=42-
4.BB-/	4.b-\	4.D/	4.dd\
8BB-/	8b-\	8D/	8dd\
4BB-/	4b-\	4D/	4dd\
4FF/	4a\	2F\	4cc\
!	!	!	!LO:N:acc=#
1GG	1g	.	4bn\
.	.	4E\	2cc\
.	.	2D/	.
!	!	!	!LO:N:acc=#
.	.	.	4bn\
=43	=43	=43	=43
1C	1g	1C	2cc\
.	.	.	2cc\
1r	1r	1F	8cc\
.	.	.	8b-\
.	.	.	8a\
.	.	.	8g/
.	.	.	8f/
.	.	.	8g/
.	.	.	8a\
.	.	.	8f/
*custos:F	*custos:cc	*custos:E	*custos:g
!LO:PB:g=original	!LO:PB:g=original	!LO:PB:g=original	!LO:PB:g=original
=44-	=44-	=44-	=44-
*	*	*	*Xtuplet
0r	0r	1E-X	12g\
.	.	.	12a\
.	.	.	12b-\
.	.	.	8f/
.	.	.	8g/
.	.	.	12a\
.	.	.	12b-\
.	.	.	12cc\
.	.	.	4dd\
.	.	1D	8cc\
.	.	.	8b-\
.	.	.	8cc\
.	.	.	8dd\
.	.	.	8ee\
.	.	.	8ff\
.	.	.	4dd\
=45	=45	=45	=45
0r	1r	1C	8ee\
.	.	.	8dd\
.	.	.	2ff\
.	.	.	4ee\
.	2r	1FF	1ff
.	[<2cc\	.	.
=46-	=46-	=46-	=46-
1F	8cc\]	0r	0r
.	8b-\	.	.
.	8a\	.	.
.	8g/	.	.
.	8f/	.	.
.	8g/	.	.
.	8a\	.	.
.	8f/	.	.
1E-X	8g/	.	.
.	8a\	.	.
.	8b-\	.	.
.	8f/	.	.
.	8g/	.	.
.	8a\	.	.
.	8b-\	.	.
.	8cc\	.	.
=47	=47	=47	=47
1D	8dd\	0r	0r
.	8cc\	.	.
.	8b-\	.	.
.	8cc\	.	.
.	8dd\	.	.
.	8ee\	.	.
.	8ff\	.	.
.	8dd\	.	.
1C	4ee\	.	.
.	4.cc\	.	.
.	8b-\	.	.
.	4g/	.	.
=48-	=48-	=48-	=48-
2FF/	1.a	1r	1r
2.F\	.	.	.
.	.	2r	2r
4E\	.	.	.
4D/	2dd\	[y2D/	[y2ee\
4C/	.	.	.
=49	=49	=49	=49
!	!	!LO:N:xstem:cue	!LO:N:xstem:cue
1.BB-	4dd\	4D]	4ee]
.	4cc\	4E\	4ee\
.	4b-\	4F\	4dd\
.	4cc\	4E\	4cc\
.	2dd\	4F\	2b-\
.	.	4G\	.
2AA/	2cc\	4A\	2cc\
.	.	4G\	.
=50-	=50-	=50-	=50-
0BB-	2.b-\	4F\	2.dd\
.	.	4E\	.
.	.	4D/	.
.	4cc\	4E\	4cc\
.	2dd\	2F\	4b-\
.	.	.	4f/
.	2dd\	[>2D/	4b-\
.	.	.	4cc\
=51	=51	=51	=51
0BB-	2.b-\	2D/]	4dd\
.	.	.	4b-\
.	.	2D/	4dd\
.	4cc\	.	4ee\
.	2dd\	1BB-	2ff\
.	1b-\	.	2dd\
=52-	=52-	=52-	=52-
00FF	.	00C	00cc
.	4a\	.	.
.	4g/	.	.
.	0.al\	.	.
==	==	==	==
*-	*-	*-	*-
!!!system-decoration: g1
!!!RDF**kern: > = above
!!!RDF**kern: < = below
!!!RDF**kern: l = terminal long
!!!ENC: Berenika Jozajtis
!!!END: 2021-12-13
!!!EED: Jędrzej Mróz
!!!EEV: 2021-12-20
!!!YEC: Copyright 2022 Narodowy Instytut Fryderyka Chopina (https://polishscores.org)
!!!YEM: License CC-BY-4.0 (https://creativecommons.org/licenses/by/4.0)
